openmetadata-ui/src/main/resources/ui/src/assets/svg/ic-comment-grey-primary.svg

<svg width="18" height="14" viewBox="0 0 18 14" fill="#7147e8" xmlns="http://www.w3.org/2000/svg">
<path fill-rule="evenodd" clip-rule="evenodd" d="M7.09861 0H16.0963C17.146 0 18 0.843002 18 1.87919V6.88484C18 7.81883 17.3062 8.59586 16.4005 8.74005V10.8168C16.4005 11.0263 16.2748 11.216 16.0803 11.2999C16.0116 11.3295 15.9388 11.344 15.8666 11.344C15.7346 11.344 15.6044 11.2956 15.5037 11.2036L12.8351 8.76403H11.119V8.76422H10.051V8.76407H7.09861C6.04888 8.76407 5.19486 7.92103 5.19486 6.88487V5.18849H5.19435V4.13426H5.19486V1.87919C5.19486 0.842967 6.04891 0 7.09861 0ZM16.0963 7.70976C16.557 7.70976 16.9319 7.33969 16.9319 6.88487V1.87919C16.9319 1.42434 16.557 1.05431 16.0963 1.05431H7.09861C6.63782 1.05431 6.26295 1.42438 6.26295 1.87919V6.8848C6.26295 7.33965 6.63785 7.70969 7.09861 7.70969H13.0444C13.179 7.70969 13.3085 7.75984 13.4073 7.8501L15.3324 9.61012V8.2369C15.3324 7.94577 15.5715 7.70976 15.8665 7.70976H16.0963Z" fill="#7147e8"/>
<path d="M4.14845 4.13426H1.90375C0.853981 4.13419 0 4.97719 0 6.01338V9.91148C0 10.7648 0.579023 11.487 1.36969 11.7154V13.4729C1.36969 13.6788 1.49115 13.8659 1.68071 13.9518C1.75201 13.9842 1.82809 14 1.90361 14C2.02887 14 2.15276 13.9565 2.25148 13.8729L4.70946 11.7907H9.2153C10.265 11.7907 11.119 10.9477 11.119 9.91148V9.79664H10.051V9.91148C10.051 10.3663 9.67609 10.7364 9.21533 10.7364H4.51178C4.38416 10.7364 4.26083 10.7814 4.16398 10.8635L2.43777 12.3258V11.2635C2.43777 10.9724 2.19867 10.7364 1.90375 10.7364C1.44295 10.7364 1.06808 10.3663 1.06808 9.91148V6.01338C1.06808 5.55857 1.44295 5.18849 1.90375 5.18849H4.14845V4.13426Z" fill="#7147e8"/>
</svg>

<svg xmlns="http://www.w3.org/2000/svg" width="18" height="14" fill="#7147e8"><path fill-rule="evenodd" d="M7.099 0h8.997C17.146 0 18 .843 18 1.88v5.005a1.89 1.89 0 0 1-1.6 1.855v2.077a.527.527 0 0 1-.533.527.538.538 0 0 1-.363-.14l-2.669-2.44H7.1c-1.05 0-1.904-.843-1.904-1.88V1.88C5.195.843 6.049 0 7.099 0Zm8.997 7.71c.461 0 .836-.37.836-.825V1.879a.831.831 0 0 0-.836-.825H7.1c-.461 0-.836.37-.836.825v5.006c0 .455.375.825.836.825h5.945c.135 0 .264.05.363.14l1.925 1.76V8.237a.53.53 0 0 1 .534-.527h.23Z" clip-rule="evenodd"/><path d="M4.148 4.134H1.904C.854 4.134 0 4.977 0 6.014V9.91c0 .854.579 1.576 1.37 1.804v1.758a.527.527 0 0 0 .534.527c.125 0 .249-.043.347-.127L4.71 11.79h4.506c1.05 0 1.904-.843 1.904-1.88v-.114h-1.068v.114a.831.831 0 0 1-.836.825H4.512a.538.538 0 0 0-.348.127l-1.726 1.463v-1.063a.53.53 0 0 0-.534-.527.831.831 0 0 1-.836-.825V6.013c0-.454.375-.825.836-.825h2.244V4.134Z"/></svg>
